;FLAVOR:Marlin
;TIME:604
;Filament used: 0.160231m
;Layer height: 0.16
;MINX:92.817
;MINY:92.819
;MINZ:0.2
;MAXX:127.179
;MAXY:127.181
;MAXZ:10.48
;Generated with Cura_SteamEngine 5.2.1
M140 S70
M105
M190 S70
M104 S240
M105
M109 S240
M82 ;absolute extrusion mode
; Ender 3 Custom Start G-code
G92 E0 ; Reset Extruder
G28 ; Home all axes
G1 Z2.0 F3000 ; Move Z Axis up little to prevent scratching of Heat Bed
G1 X0.1 Y20 Z0.3 F5000.0 ; Move to start position
G1 X0.1 Y200.0 Z0.3 F1500.0 E15 ; Draw the first line
G1 X0.4 Y200.0 Z0.3 F5000.0 ; Move to side a little
G1 X0.4 Y20 Z0.3 F1500.0 E30 ; Draw the second line
G92 E0 ; Reset Extruder
G1 Z2.0 F3000 ; Move Z Axis up little to prevent scratching of Heat Bed
G1 X5 Y20 Z0.3 F5000.0 ; Move over to prevent blob squish
G92 E0
G92 E0
G1 F2700 E-5
;LAYER_COUNT:79
;LAYER:0
M107
G0 F6000 X97.862 Y97.837 Z0.2
;TYPE:SKIRT
G1 F2700 E0
G1 F900 X98.545 Y97.212 E0.03079
G1 X99.286 Y96.594 E0.06288
G1 X99.742 Y96.233 E0.08223
G1 X100.502 Y95.683 E0.11343
G1 X101.208 Y95.253 E0.14093
G1 X101.706 Y94.975 E0.1599
G1 X102.608 Y94.505 E0.19372
G1 X103.459 Y94.113 E0.22489
G1 X104.274 Y93.816 E0.25374
G1 X105.151 Y93.54 E0.28432
G1 X105.744 Y93.369 E0.30484
G1 X106.656 Y93.147 E0.33606
G1 X107.546 Y93.009 E0.36602
G1 X108.447 Y92.911 E0.39616
G1 X109.076 Y92.858 E0.41716
G1 X110.013 Y92.819 E0.44835
G1 X110.909 Y92.857 E0.47818
G1 X111.82 Y92.937 E0.50859
G1 X112.454 Y93.009 E0.52982
G1 X113.381 Y93.155 E0.56103
G1 X114.262 Y93.37 E0.59119
G1 X115.104 Y93.617 E0.62038
G1 X115.689 Y93.803 E0.64079
G1 X116.57 Y94.125 E0.67199
G1 X117.385 Y94.503 E0.70187
G1 X117.918 Y94.777 E0.7218
G1 X118.76 Y95.237 E0.75372
G1 X119.56 Y95.725 E0.78488
G1 X120.291 Y96.259 E0.81499
G1 X121.021 Y96.847 E0.84617
G1 X121.48 Y97.236 E0.86618
G1 X122.169 Y97.873 E0.89739
G1 X122.773 Y98.532 E0.92712
G1 X123.147 Y98.975 E0.94641
G1 X123.738 Y99.709 E0.97775
G1 X124.292 Y100.466 E1.00895
G1 X124.773 Y101.258 E1.03977
G1 X125.19 Y102.022 E1.06872
G1 X125.479 Y102.581 E1.08965
G1 X125.874 Y103.432 E1.12085
G1 X126.184 Y104.277 E1.15079
G1 X126.373 Y104.867 E1.17139
G1 X126.628 Y105.734 E1.20145
G1 X126.85 Y106.645 E1.23264
G1 X126.991 Y107.555 E1.26327
G1 X127.09 Y108.475 E1.29404
G1 X127.141 Y109.091 E1.3146
G1 X127.179 Y110.029 E1.34583
G1 X127.142 Y110.897 E1.37472
G1 X127.062 Y111.812 E1.40527
G1 X126.989 Y112.456 E1.42683
G1 X126.844 Y113.383 E1.45803
G1 X126.626 Y114.272 E1.48848
G1 X126.387 Y115.086 E1.5167
G1 X126.197 Y115.685 E1.5376
G1 X125.876 Y116.566 E1.56878
G1 X125.503 Y117.373 E1.59835
G1 X125.249 Y117.869 E1.61689
G1 X124.769 Y118.749 E1.65023
G1 X124.282 Y119.55 E1.68141
G1 X123.741 Y120.289 E1.71187
G1 X123.16 Y121.012 E1.74272
G1 X122.781 Y121.461 E1.76226
G1 X122.146 Y122.152 E1.79347
G1 X121.493 Y122.752 E1.82297
G1 X120.785 Y123.347 E1.85373
G1 X120.289 Y123.742 E1.87482
G1 X119.531 Y124.294 E1.906
G1 X118.764 Y124.76 E1.93585
G1 X117.958 Y125.202 E1.96643
G1 X117.405 Y125.488 E1.98713
G1 X116.555 Y125.883 E2.01831
G1 X115.665 Y126.206 E2.0498
G1 X114.857 Y126.458 E2.07795
G1 X114.245 Y126.634 E2.09913
G1 X113.334 Y126.854 E2.1303
G1 X112.456 Y126.991 E2.15986
G1 X111.862 Y127.059 E2.17974
G1 X110.91 Y127.143 E2.21153
G1 X109.973 Y127.181 E2.24272
G1 X109.075 Y127.142 E2.27262
G1 X108.178 Y127.062 E2.30257
G1 X107.551 Y126.991 E2.32356
G1 X106.625 Y126.846 E2.35473
G1 X105.762 Y126.636 E2.38427
G1 X104.9 Y126.385 E2.41413
G1 X104.3 Y126.194 E2.43508
G1 X103.42 Y125.871 E2.46625
G1 X102.619 Y125.501 E2.4956
G1 X102.104 Y125.237 E2.51485
G1 X101.199 Y124.74 E2.54919
G1 X100.4 Y124.249 E2.58038
G1 X99.684 Y123.723 E2.60993
G1 X99.024 Y123.191 E2.63813
G1 X98.531 Y122.775 E2.65958
G1 X97.841 Y122.14 E2.69077
G1 X97.223 Y121.468 E2.72113
G1 X96.852 Y121.029 E2.74025
G1 X96.261 Y120.295 E2.77159
G1 X95.708 Y119.538 E2.80278
G1 X95.25 Y118.788 E2.832
G1 X94.801 Y117.97 E2.86304
G1 X94.507 Y117.399 E2.8844
G1 X94.114 Y116.548 E2.91558
G1 X93.809 Y115.712 E2.94518
G1 X93.526 Y114.807 E2.97671
G1 X93.349 Y114.182 E2.99832
G1 X93.132 Y113.27 E3.0295
G1 X93.004 Y112.436 E3.05756
G1 X92.912 Y111.588 E3.08593
G1 X92.856 Y110.926 E3.10803
G1 X92.817 Y109.989 E3.13922
G1 X92.857 Y109.061 E3.17012
G1 X92.939 Y108.155 E3.20037
G1 X93.009 Y107.542 E3.22089
G1 X93.155 Y106.616 E3.25207
G1 X93.359 Y105.776 E3.28082
G1 X93.599 Y104.95 E3.30943
G1 X93.8 Y104.316 E3.33155
G1 X94.122 Y103.435 E3.36275
G1 X94.519 Y102.58 E3.3941
G1 X94.82 Y101.999 E3.41587
G1 X95.265 Y101.191 E3.44655
G1 X95.757 Y100.392 E3.47776
G1 X96.226 Y99.75 E3.5042
G1 X96.79 Y99.044 E3.53426
G1 X97.227 Y98.527 E3.55677
G1 X97.862 Y97.837 E3.58796
G0 F6000 X98.157 Y98.109
G1 F900 X98.803 Y97.518 E3.61708
G1 X99.535 Y96.908 E3.64877
G1 X99.991 Y96.547 E3.66812
G1 X100.737 Y96.008 E3.69873
G1 X101.403 Y95.602 E3.72467
G1 X101.901 Y95.324 E3.74364
G1 X102.79 Y94.861 E3.77698
G1 X103.627 Y94.476 E3.80762
G1 X104.397 Y94.197 E3.83486
G1 X105.262 Y93.924 E3.86503
G1 X105.855 Y93.753 E3.88556
G1 X106.75 Y93.537 E3.91618
G1 X107.591 Y93.406 E3.94449
G1 X108.481 Y93.309 E3.97426
G1 X109.11 Y93.256 E3.99526
G1 X110.03 Y93.219 E4.02588
G1 X110.876 Y93.255 E4.05405
G1 X111.455 Y93.303 E4.07337
G1 X112.409 Y93.407 E4.10529
G1 X113.318 Y93.55 E4.13589
G1 X114.152 Y93.754 E4.16445
G1 X114.71 Y93.915 E4.18377
G1 X115.568 Y94.184 E4.21367
G1 X116.432 Y94.501 E4.24428
G1 X117.202 Y94.859 E4.27253
G1 X118.018 Y95.284 E4.30313
G1 X118.566 Y95.587 E4.32396
G1 X119.352 Y96.067 E4.35459
G1 X120.042 Y96.572 E4.38303
G1 X120.514 Y96.948 E4.4031
G1 X121.221 Y97.541 E4.43379
G1 X121.897 Y98.167 E4.46443
G1 X122.468 Y98.79 E4.49254
G1 X123.026 Y99.457 E4.52146
G1 X123.426 Y99.958 E4.54279
G1 X123.968 Y100.702 E4.5734
G1 X124.423 Y101.451 E4.60255
G1 X124.7 Y101.953 E4.62162
G1 X125.124 Y102.765 E4.65209
G1 X125.511 Y103.6 E4.6827
G1 X125.803 Y104.399 E4.71099
G1 X125.992 Y104.989 E4.7316
G1 X126.244 Y105.845 E4.76128
G1 X126.461 Y106.739 E4.79187
G1 X126.594 Y107.6 E4.82085
G1 X126.692 Y108.508 E4.85123
G1 X126.743 Y109.124 E4.87178
G1 X126.779 Y110.044 E4.90241
G1 X126.744 Y110.864 E4.92971
G1 X126.665 Y111.767 E4.95985
G1 X126.592 Y112.411 E4.98141
G1 X126.448 Y113.32 E5.01202
G1 X126.242 Y114.161 E5.04082
G1 X126.006 Y114.965 E5.06869
G1 X125.816 Y115.564 E5.08959
G1 X125.5 Y116.429 E5.12022
G1 X125.147 Y117.191 E5.14815
G1 X124.893 Y117.687 E5.16669
G1 X124.419 Y118.556 E5.19961
G1 X123.94 Y119.342 E5.23022
G1 X123.429 Y120.04 E5.259
G1 X123.045 Y120.522 E5.27949
G1 X122.475 Y121.203 E5.30903
G1 X121.851 Y121.88 E5.33965
G1 X121.234 Y122.448 E5.36755
G1 X120.791 Y122.824 E5.38687
G1 X120.039 Y123.429 E5.41897
G1 X119.295 Y123.971 E5.44959
G1 X118.57 Y124.41 E5.47778
G1 X117.774 Y124.846 E5.50796
G1 X117.221 Y125.132 E5.52867
G1 X116.386 Y125.519 E5.55928
G1 X115.545 Y125.825 E5.58905
G1 X115.01 Y125.994 E5.60771
G1 X114.135 Y126.249 E5.63802
G1 X113.24 Y126.465 E5.66864
G1 X112.411 Y126.593 E5.69654
G1 X111.49 Y126.694 E5.72736
G1 X110.877 Y126.745 E5.74782
G1 X109.957 Y126.781 E5.77844
G1 X109.109 Y126.744 E5.80667
G1 X108.223 Y126.665 E5.83626
G1 X107.596 Y126.594 E5.85725
G1 X106.687 Y126.45 E5.88786
G1 X105.872 Y126.252 E5.91575
G1 X105.022 Y126.004 E5.9452
G1 X104.422 Y125.813 E5.96614
G1 X103.557 Y125.495 E5.9968
G1 X102.802 Y125.145 E6.02448
G1 X101.965 Y124.709 E6.05586
G1 X101.394 Y124.391 E6.0776
G1 X100.609 Y123.908 E6.10826
G1 X99.934 Y123.411 E6.13614
G1 X99.282 Y122.885 E6.164
G1 X98.789 Y122.469 E6.18546
G1 X98.112 Y121.846 E6.21606
G1 X97.529 Y121.21 E6.24475
G1 X96.969 Y120.541 E6.27377
G1 X96.574 Y120.046 E6.29483
G1 X96.031 Y119.302 E6.32547
G1 X95.599 Y118.593 E6.35308
G1 X95.321 Y118.094 E6.37208
G1 X94.863 Y117.216 E6.40502
G1 X94.477 Y116.38 E6.43564
G1 X94.19 Y115.59 E6.4636
G1 X93.911 Y114.698 E6.49469
G1 X93.734 Y114.073 E6.51629
G1 X93.522 Y113.177 E6.54691
G1 X93.402 Y112.391 E6.57336
G1 X93.311 Y111.554 E6.60136
G1 X93.255 Y110.892 E6.62346
G1 X93.217 Y109.973 E6.65405
G1 X93.256 Y109.095 E6.68328
G1 X93.336 Y108.2 E6.71317
G1 X93.406 Y107.587 E6.73369
G1 X93.551 Y106.678 E6.76431
G1 X93.744 Y105.886 E6.79142
G1 X93.981 Y105.071 E6.81965
G1 X94.182 Y104.437 E6.84177
G1 X94.498 Y103.572 E6.8724
G1 X94.874 Y102.764 E6.90204
G1 X95.332 Y101.891 E6.93483
G1 X95.614 Y101.386 E6.95407
G1 X96.098 Y100.602 E6.98471
G1 X96.54 Y99.997 E7.00963
G1 X96.862 Y99.588 E7.02695
G1 X97.533 Y98.785 E7.06175
G1 X98.157 Y98.109 E7.09235
G0 F6000 X98.451 Y98.38
G1 F900 X99.06 Y97.824 E7.11978
G1 X99.546 Y97.415 E7.1409
G1 X100.239 Y96.861 E7.17041
G1 X100.971 Y96.332 E7.20045
G1 X101.598 Y95.952 E7.22484
G1 X102.41 Y95.506 E7.25565
G1 X102.973 Y95.217 E7.2767
G1 X103.794 Y94.84 E7.30675
G1 X104.519 Y94.577 E7.3324
G1 X105.373 Y94.308 E7.36218
G1 X105.966 Y94.137 E7.3827
G1 X106.844 Y93.926 E7.41274
G1 X107.637 Y93.804 E7.43942
G1 X108.515 Y93.708 E7.4688
G1 X109.144 Y93.655 E7.4898
G1 X110.046 Y93.619 E7.51982
G1 X110.843 Y93.654 E7.54635
G1 X111.73 Y93.732 E7.57597
G1 X112.364 Y93.804 E7.59719
G1 X113.256 Y93.946 E7.62723
G1 X114.041 Y94.139 E7.65412
G1 X114.599 Y94.3 E7.67344
G1 X115.447 Y94.566 E7.703
G1 X116.294 Y94.877 E7.73301
G1 X117.019 Y95.214 E7.7596
G1 X117.552 Y95.488 E7.77953
G1 X118.373 Y95.937 E7.81065
G1 X119.143 Y96.408 E7.84068
G1 X119.792 Y96.885 E7.86746
G1 X120.504 Y97.458 E7.89786
G1 X120.963 Y97.847 E7.91787
G1 X121.625 Y98.46 E7.94788
G1 X122.162 Y99.048 E7.97437
G1 X122.536 Y99.491 E7.99365
G1 X123.113 Y100.208 E8.02426
G1 X123.645 Y100.938 E8.0543
G1 X124.073 Y101.644 E8.08176
G1 X124.35 Y102.146 E8.10083
G1 X124.769 Y102.949 E8.13096
G1 X125.148 Y103.768 E8.16097
G1 X125.422 Y104.521 E8.18763
G1 X125.611 Y105.111 E8.20823
G1 X125.859 Y105.956 E8.23752
G1 X126.072 Y106.834 E8.26757
G1 X126.197 Y107.645 E8.29486
G1 X126.264 Y108.238 E8.31471
G1 X126.344 Y109.157 E8.34539
G1 X126.379 Y110.06 E8.37545
G1 X126.345 Y110.831 E8.40112
G1 X126.267 Y111.722 E8.43087
G1 X126.194 Y112.366 E8.45242
G1 X126.053 Y113.258 E8.48246
G1 X125.858 Y114.05 E8.50959
G1 X125.625 Y114.844 E8.53711
G1 X125.435 Y115.443 E8.55801
G1 X125.124 Y116.291 E8.58805
G1 X124.791 Y117.008 E8.61435
G1 X124.389 Y117.782 E8.64336
G1 X124.069 Y118.362 E8.66539
G1 X123.598 Y119.133 E8.69544
G1 X123.116 Y119.791 E8.72257
G1 X122.732 Y120.273 E8.74306
G1 X122.169 Y120.945 E8.77222
G1 X121.557 Y121.609 E8.80226
G1 X120.975 Y122.143 E8.82853
G1 X120.532 Y122.519 E8.84785
G1 X119.79 Y123.116 E8.87953
G1 X119.06 Y123.647 E8.90955
G1 X118.377 Y124.061 E8.93612
G1 X117.846 Y124.355 E8.9563
G1 X117.038 Y124.777 E8.98662
G1 X116.218 Y125.156 E9.01667
G1 X115.424 Y125.443 E9.04475
G1 X114.636 Y125.689 E9.07221
G1 X114.024 Y125.865 E9.09339
G1 X113.146 Y126.076 E9.12342
G1 X112.365 Y126.196 E9.1497
G1 X111.457 Y126.295 E9.18008
G1 X110.844 Y126.346 E9.20054
G1 X109.941 Y126.381 E9.23059
G1 X109.142 Y126.345 E9.2572
G1 X108.56 Y126.296 E9.27662
G1 X107.641 Y126.196 E9.30737
G1 X106.749 Y126.055 E9.33741
G1 X105.982 Y125.867 E9.36367
G1 X105.43 Y125.709 E9.38277
G1 X104.543 Y125.431 E9.41368
G1 X103.695 Y125.12 E9.44373
G1 X102.984 Y124.789 E9.46981
G1 X102.469 Y124.525 E9.48906
G1 X101.588 Y124.041 E9.52249
G1 X100.819 Y123.567 E9.55254
G1 X100.184 Y123.098 E9.57879
G1 X99.54 Y122.58 E9.60628
G1 X99.047 Y122.164 E9.62774
G1 X98.383 Y121.551 E9.65779
G1 X97.834 Y120.952 E9.68482
G1 X97.463 Y120.513 E9.70394
G1 X96.886 Y119.796 E9.73455
G1 X96.355 Y119.066 E9.76457
G1 X95.948 Y118.398 E9.79059
G1 X95.512 Y117.604 E9.82072
G1 X95.218 Y117.033 E9.84208
G1 X94.841 Y116.213 E9.87209
G1 X94.571 Y115.468 E9.89845
G1 X94.296 Y114.589 E9.92908
G1 X94.119 Y113.964 E9.95069
G1 X93.912 Y113.085 E9.98072
G1 X93.799 Y112.345 E10.00562
G1 X93.709 Y111.521 E10.03319
G1 X93.653 Y110.859 E10.05529
G1 X93.617 Y109.956 E10.08535
G1 X93.654 Y109.129 E10.11288
G1 X93.705 Y108.533 E10.13277
G1 X93.804 Y107.633 E10.16289
G1 X93.946 Y106.741 E10.19293
G1 X94.128 Y105.995 E10.21847
G1 X94.275 Y105.479 E10.23632
G1 X94.563 Y104.557 E10.26844
G1 X94.874 Y103.71 E10.29845
G1 X95.229 Y102.948 E10.32641
G1 X95.681 Y102.086 E10.35879
G1 X95.963 Y101.581 E10.37802
G1 X96.438 Y100.813 E10.40806
G1 X96.855 Y100.244 E10.43152
G1 X97.401 Y99.56 E10.46063
G1 X97.838 Y99.043 E10.48315
G1 X98.451 Y98.38 E10.51318
G1 F2700 E5.51318
;MESH:PORTALRADIO - black- front-Sphere_003.stl
G0 F6000 X104.367 Y106.104
G0 X105.205 Y106.79
G0 X104.981 Y109.92
G0 X105.078 Y110.897
G0 X105.364 Y111.838
G0 X105.826 Y112.704
G0 X106.489 Y113.51
G0 X107.098 Y114.008
G0 X108.977 Y115.238
G1 F2700 E10.51318
G0 F6000 X108.997 Y115.039
;TYPE:WALL-INNER
G1 F833.3 X108.03 Y114.746 E10.54947
G1 X107.146 Y114.273 E10.58549
G1 X106.364 Y113.632 E10.62181
G1 F837.2 X105.708 Y112.836 E10.65869
G1 F845.1 X105.225 Y111.945 E10.69459
G1 F861.2 X104.925 Y110.976 E10.72985
G1 F878 X104.821 Y109.967 E10.76443
G1 F893.3 X104.915 Y108.954 E10.79852
G1 F909.1 X105.206 Y107.982 E10.83193
G1 F930.2 X105.689 Y107.067 E10.86522
G1 F952.4 X106.336 Y106.277 E10.89732
G1 F960 X107.105 Y105.649 E10.92827
G1 F967.7 X108 Y105.166 E10.95973
G1 F975.6 X108.981 Y104.867 E10.9912
G1 F978.3 X109.998 Y104.766 E11.02247
G1 F975.6 X111.012 Y104.868 E11.05374
G1 F967.7 X111.993 Y105.17 E11.08549
G1 F957.4 X112.887 Y105.653 E11.11726
G1 F949.9 X113.656 Y106.282 E11.14857
G1 F937.5 X114.312 Y107.09 E11.1818
G1 F920.7 X114.781 Y107.98 E11.21451
G1 F902.3 X115.07 Y108.947 E11.24799
G1 F884.5 X115.166 Y109.963 E11.28253
G1 F867.5 X115.062 Y110.976 E11.31767
G1 F855.1 X114.775 Y111.919 E11.35217
G1 F841.1 X114.27 Y112.854 E11.38999
G1 F833.3 X113.634 Y113.632 E11.42609
G1 X112.852 Y114.273 E11.46241
G1 X111.967 Y114.746 E11.49845
G1 X111 Y115.039 E11.53475
G1 X109.999 Y115.138 E11.57088
G1 X108.997 Y115.039 E11.60705
G0 F6000 X109.095 Y114.634
;TYPE:WALL-OUTER
G1 F900 X108.207 Y114.368 E11.63788
G1 X107.377 Y113.927 E11.66914
G1 X106.659 Y113.339 E11.70001
G1 X106.034 Y112.58 E11.73271
G1 X105.58 Y111.729 E11.76479
G1 X105.311 Y110.833 E11.79591
G1 X105.223 Y109.902 E11.82701
G1 X105.312 Y109.002 E11.85709
G1 X105.595 Y108.075 E11.88933
G1 X106.017 Y107.286 E11.91909
G1 X106.61 Y106.558 E11.95032
G1 X107.335 Y105.96 E11.98157
G1 X108.158 Y105.518 E12.01264
G1 X109.058 Y105.243 E12.04395
G1 X110.011 Y105.152 E12.07579
G1 X110.926 Y105.244 E12.10637
G1 X111.837 Y105.524 E12.13807
G1 X112.654 Y105.965 E12.16895
G1 X113.377 Y106.562 E12.20014
G1 X113.967 Y107.285 E12.23117
G1 X114.403 Y108.111 E12.26224
G1 X114.671 Y108.997 E12.29303
G1 X114.76 Y109.938 E12.32446
G1 X114.672 Y110.833 E12.35438
G1 X114.39 Y111.761 E12.38663
G1 X113.925 Y112.622 E12.41918
G1 X113.338 Y113.339 E12.45
G1 X112.62 Y113.927 E12.48087
G1 X111.789 Y114.368 E12.51216
G1 X110.902 Y114.634 E12.54296
G1 X109.999 Y114.722 E12.57313
G1 X109.095 Y114.634 E12.60334
G0 F6000 X108.914 Y115.464
;TYPE:WALL-INNER
G1 F833.3 X109.999 Y115.571 E12.64251
G1 X111.083 Y115.464 E12.68163
G1 X112.132 Y115.145 E12.72102
G1 X113.092 Y114.632 E12.76012
G1 X113.94 Y113.937 E12.7995
G1 X114.631 Y113.094 E12.83866
G1 F835.3 X115.149 Y112.127 E12.87797
G1 F847.1 X115.469 Y111.086 E12.91646
G1 F863.3 X115.577 Y110.018 E12.95368
G1 F878 X115.476 Y108.913 E12.99151
G1 F893.3 X115.16 Y107.86 E13.02835
G1 F911.4 X114.648 Y106.894 E13.06425
G1 F927.8 X113.954 Y106.041 E13.09973
G1 F944.9 X113.107 Y105.345 E13.13446
G1 F957.4 X112.143 Y104.828 E13.16866
G1 F967.7 X111.089 Y104.506 E13.20275
G1 F975.6 X109.999 Y104.397 E13.23636
G1 F978.3 X108.908 Y104.504 E13.26991
G1 F975.6 X107.854 Y104.826 E13.30372
G1 F967.7 X106.89 Y105.343 E13.33756
G1 F957.4 X106.038 Y106.043 E13.37203
G1 F944.9 X105.348 Y106.893 E13.40672
