;FLAVOR:Marlin
;TIME:680
;Filament used: 0.225939m
;Layer height: 0.16
;MINX:95.009
;MINY:95.009
;MINZ:0.2
;MAXX:124.991
;MAXY:124.991
;MAXZ:14.6
;Generated with Cura_SteamEngine 5.2.1
M140 S70
M105
M190 S70
M104 S240
M105
M109 S240
M82 ;absolute extrusion mode
; Ender 3 Custom Start G-code
G92 E0 ; Reset Extruder
G28 ; Home all axes
G1 Z2.0 F3000 ; Move Z Axis up little to prevent scratching of Heat Bed
G1 X0.1 Y20 Z0.3 F5000.0 ; Move to start position
G1 X0.1 Y200.0 Z0.3 F1500.0 E15 ; Draw the first line
G1 X0.4 Y200.0 Z0.3 F5000.0 ; Move to side a little
G1 X0.4 Y20 Z0.3 F1500.0 E30 ; Draw the second line
G92 E0 ; Reset Extruder
G1 Z2.0 F3000 ; Move Z Axis up little to prevent scratching of Heat Bed
G1 X5 Y20 Z0.3 F5000.0 ; Move over to prevent blob squish
G92 E0
G92 E0
G1 F2700 E-5
;LAYER_COUNT:74
;LAYER:0
M107
G0 F6000 X99.472 Y99.329 Z0.2
;TYPE:SKIRT
G1 F2700 E0
G1 F900 X100.059 Y98.791 E0.02648
G1 X100.536 Y98.391 E0.04719
G1 X100.911 Y98.091 E0.06316
G1 X101.668 Y97.537 E0.09436
G1 X102.441 Y97.065 E0.12449
G1 X103.088 Y96.713 E0.14898
G1 X103.475 Y96.515 E0.16344
G1 X104.327 Y96.124 E0.19462
G1 X105.142 Y95.828 E0.22346
G1 X105.468 Y95.724 E0.23484
G1 X106.179 Y95.515 E0.25949
G1 X107.09 Y95.294 E0.29067
G1 X107.931 Y95.162 E0.31898
G1 X108.691 Y95.079 E0.34441
G1 X109.108 Y95.045 E0.35833
G1 X110.045 Y95.009 E0.38951
G1 X110.895 Y95.045 E0.41781
G1 X111.601 Y95.108 E0.44139
G1 X112.032 Y95.157 E0.45581
G1 X112.958 Y95.303 E0.48699
G1 X113.833 Y95.516 E0.51695
G1 X114.453 Y95.699 E0.53845
G1 X114.864 Y95.83 E0.55279
G1 X115.744 Y96.153 E0.58397
G1 X116.518 Y96.51 E0.61232
G1 X117.177 Y96.854 E0.63705
G1 X117.564 Y97.069 E0.65177
G1 X118.364 Y97.559 E0.68297
G1 X119.196 Y98.178 E0.71746
G1 X119.79 Y98.665 E0.74301
G1 X120.489 Y99.29 E0.7742
G1 X121.158 Y100.002 E0.80669
G1 X121.612 Y100.541 E0.83013
G1 X121.914 Y100.919 E0.84623
G1 X122.468 Y101.676 E0.87743
G1 X122.934 Y102.44 E0.90719
G1 X123.287 Y103.088 E0.93173
G1 X123.485 Y103.475 E0.94619
G1 X123.876 Y104.327 E0.97737
G1 X124.169 Y105.132 E1.00586
G1 X124.371 Y105.781 E1.02847
G1 X124.489 Y106.193 E1.04273
G1 X124.708 Y107.105 E1.07392
G1 X124.837 Y107.924 E1.1015
G1 X124.92 Y108.686 E1.12699
G1 X124.954 Y109.101 E1.14084
G1 X124.991 Y110.038 E1.17203
G1 X124.955 Y110.885 E1.20023
G1 X124.892 Y111.595 E1.22393
G1 X124.844 Y112.019 E1.23813
G1 X124.699 Y112.946 E1.26933
G1 X124.491 Y113.804 E1.2987
G1 X124.316 Y114.401 E1.31939
G1 X124.179 Y114.835 E1.33453
G1 X123.859 Y115.717 E1.36573
G1 X123.477 Y116.544 E1.39603
G1 X123.152 Y117.166 E1.41937
G1 X122.937 Y117.554 E1.43413
G1 X122.447 Y118.354 E1.46533
G1 X121.814 Y119.205 E1.5006
G1 X121.326 Y119.799 E1.52617
G1 X120.701 Y120.497 E1.55734
G1 X120 Y121.155 E1.58931
G1 X119.463 Y121.609 E1.6127
G1 X119.088 Y121.909 E1.62867
G1 X118.331 Y122.463 E1.65987
G1 X117.571 Y122.928 E1.68951
G1 X116.912 Y123.287 E1.71447
G1 X116.525 Y123.485 E1.72893
G1 X115.673 Y123.876 E1.76011
G1 X114.858 Y124.172 E1.78894
G1 X114.532 Y124.276 E1.80033
G1 X113.821 Y124.485 E1.82497
G1 X112.91 Y124.706 E1.85615
G1 X112.069 Y124.838 E1.88447
G1 X111.313 Y124.92 E1.90976
G1 X110.898 Y124.954 E1.92361
G1 X109.961 Y124.991 E1.9548
G1 X109.114 Y124.955 E1.98299
G1 X108.412 Y124.893 E2.00643
G1 X107.985 Y124.845 E2.02073
G1 X107.059 Y124.701 E2.05189
G1 X106.01 Y124.437 E2.08787
G1 X105.271 Y124.212 E2.11357
G1 X104.386 Y123.901 E2.14477
G1 X103.442 Y123.47 E2.17928
G1 X102.841 Y123.155 E2.20185
G1 X102.456 Y122.942 E2.21648
G1 X101.655 Y122.454 E2.24768
G1 X100.916 Y121.912 E2.27816
G1 X100.588 Y121.65 E2.29212
G1 X100.028 Y121.179 E2.31646
G1 X99.341 Y120.541 E2.34764
G1 X98.786 Y119.935 E2.37498
G1 X98.373 Y119.44 E2.39642
G1 X98.073 Y119.063 E2.41244
G1 X97.52 Y118.305 E2.44365
G1 X97.067 Y117.561 E2.47262
G1 X96.71 Y116.906 E2.49743
G1 X96.516 Y116.527 E2.51159
G1 X96.125 Y115.675 E2.54277
G1 X95.828 Y114.858 E2.57169
G1 X95.627 Y114.211 E2.59422
G1 X95.509 Y113.798 E2.60851
G1 X95.29 Y112.886 E2.6397
G1 X95.163 Y112.077 E2.66694
G1 X95.12 Y111.716 E2.67903
G1 X95.046 Y110.898 E2.70635
G1 X95.009 Y109.961 E2.73754
G1 X95.045 Y109.112 E2.7658
G1 X95.108 Y108.405 E2.78941
G1 X95.157 Y107.972 E2.8039
G1 X95.302 Y107.046 E2.83508
G1 X95.521 Y106.148 E2.86582
G1 X95.699 Y105.547 E2.88667
G1 X95.83 Y105.136 E2.90101
G1 X96.153 Y104.256 E2.93219
G1 X96.517 Y103.47 E2.961
G1 X96.848 Y102.834 E2.98485
G1 X97.063 Y102.446 E2.9996
G1 X97.553 Y101.646 E3.03081
G1 X98.098 Y100.903 E3.06145
G1 X98.351 Y100.587 E3.07492
G1 X98.832 Y100.016 E3.09975
G1 X99.472 Y99.329 E3.13098
G0 F6000 X99.764 Y99.603
G1 F900 X100.318 Y99.096 E3.15595
G1 X100.786 Y98.704 E3.17626
G1 X101.161 Y98.404 E3.19223
G1 X101.904 Y97.86 E3.22286
G1 X102.635 Y97.415 E3.25132
G1 X103.27 Y97.069 E3.27538
G1 X103.657 Y96.871 E3.28983
G1 X104.494 Y96.488 E3.32045
G1 X105.263 Y96.209 E3.34766
G1 X105.879 Y96.017 E3.36912
G1 X106.289 Y95.899 E3.38331
G1 X107.184 Y95.684 E3.41392
G1 X107.977 Y95.559 E3.44062
G1 X108.724 Y95.478 E3.46561
G1 X109.141 Y95.444 E3.47953
G1 X110.061 Y95.409 E3.51015
G1 X110.863 Y95.444 E3.53685
G1 X111.555 Y95.506 E3.55996
G1 X111.986 Y95.555 E3.57439
G1 X112.896 Y95.698 E3.60503
G1 X113.722 Y95.901 E3.63332
G1 X114.331 Y96.081 E3.65444
G1 X114.742 Y96.212 E3.66879
G1 X115.606 Y96.529 E3.6994
G1 X116.336 Y96.867 E3.72615
G1 X116.983 Y97.204 E3.75041
G1 X117.37 Y97.419 E3.76514
G1 X118.154 Y97.901 E3.79575
G1 X118.943 Y98.488 E3.82846
G1 X119.537 Y98.975 E3.85401
G1 X120.223 Y99.589 E3.88463
G1 X120.854 Y100.262 E3.91531
G1 X121.299 Y100.791 E3.9383
G1 X121.601 Y101.169 E3.95439
G1 X122.144 Y101.912 E3.985
G1 X122.585 Y102.635 E4.01317
G1 X122.931 Y103.27 E4.03722
G1 X123.129 Y103.657 E4.05168
G1 X123.512 Y104.494 E4.0823
G1 X123.788 Y105.254 E4.10919
G1 X123.892 Y105.579 E4.12054
G1 X124.104 Y106.303 E4.14563
G1 X124.319 Y107.199 E4.17628
G1 X124.44 Y107.972 E4.2023
G1 X124.522 Y108.718 E4.22726
G1 X124.556 Y109.133 E4.24111
G1 X124.591 Y110.053 E4.27173
G1 X124.557 Y110.852 E4.29833
G1 X124.495 Y111.55 E4.32164
G1 X124.447 Y111.974 E4.33583
G1 X124.304 Y112.884 E4.36647
G1 X124.106 Y113.694 E4.3942
G1 X123.934 Y114.281 E4.41455
G1 X123.797 Y114.715 E4.42968
G1 X123.482 Y115.58 E4.4603
G1 X123.121 Y116.362 E4.48895
G1 X122.802 Y116.972 E4.51184
G1 X122.587 Y117.36 E4.5266
G1 X122.106 Y118.145 E4.55722
G1 X121.505 Y118.951 E4.59066
G1 X121.017 Y119.545 E4.61623
G1 X120.403 Y120.23 E4.64682
G1 X119.739 Y120.852 E4.67708
G1 X119.213 Y121.296 E4.69998
G1 X118.838 Y121.596 E4.71595
G1 X118.095 Y122.14 E4.74658
G1 X117.376 Y122.578 E4.77458
G1 X116.73 Y122.931 E4.79907
G1 X116.343 Y123.129 E4.81352
G1 X115.506 Y123.512 E4.84414
G1 X114.737 Y123.791 E4.87135
G1 X114.121 Y123.983 E4.89281
G1 X113.711 Y124.101 E4.907
G1 X112.816 Y124.316 E4.93761
G1 X112.023 Y124.441 E4.96431
G1 X111.281 Y124.522 E4.98914
G1 X110.866 Y124.556 E5.00299
G1 X109.946 Y124.591 E5.03361
G1 X109.147 Y124.557 E5.06021
G1 X108.457 Y124.496 E5.08325
G1 X108.03 Y124.448 E5.09754
G1 X107.12 Y124.305 E5.12818
G1 X106.127 Y124.054 E5.16224
G1 X105.388 Y123.829 E5.18794
G1 X104.519 Y123.523 E5.21858
G1 X103.625 Y123.114 E5.25128
G1 X103.035 Y122.805 E5.27343
G1 X102.65 Y122.592 E5.28806
G1 X101.864 Y122.112 E5.3187
G1 X101.165 Y121.599 E5.34753
G1 X100.837 Y121.337 E5.3615
G1 X100.287 Y120.875 E5.38539
G1 X99.613 Y120.248 E5.416
G1 X99.09 Y119.676 E5.44178
G1 X98.903 Y119.456 E5.45139
G1 X98.386 Y118.814 E5.4788
G1 X97.844 Y118.07 E5.50942
G1 X97.417 Y117.367 E5.53678
G1 X97.066 Y116.724 E5.56114
G1 X96.872 Y116.345 E5.5753
G1 X96.489 Y115.508 E5.60592
G1 X96.209 Y114.737 E5.6332
G1 X96.105 Y114.411 E5.64458
G1 X95.894 Y113.688 E5.66963
G1 X95.68 Y112.793 E5.70024
G1 X95.56 Y112.03 E5.72593
G1 X95.478 Y111.281 E5.75099
G1 X95.444 Y110.866 E5.76484
G1 X95.409 Y109.946 E5.79546
G1 X95.444 Y109.144 E5.82216
G1 X95.505 Y108.45 E5.84533
G1 X95.554 Y108.017 E5.85982
G1 X95.697 Y107.108 E5.89043
G1 X95.906 Y106.259 E5.91951
G1 X96.081 Y105.669 E5.93998
G1 X96.212 Y105.258 E5.95432
G1 X96.529 Y104.394 E5.98493
G1 X96.873 Y103.652 E6.01214
G1 X97.198 Y103.028 E6.03554
G1 X97.413 Y102.64 E6.05029
G1 X97.894 Y101.855 E6.08091
G1 X98.41 Y101.153 E6.10989
G1 X98.663 Y100.837 E6.12335
G1 X99.136 Y100.276 E6.14776
G1 X99.764 Y99.603 E6.17838
G0 F6000 X100.057 Y99.876
G1 F900 X100.578 Y99.4 E6.20185
G1 X101.036 Y99.016 E6.22173
G1 X101.411 Y98.716 E6.2377
G1 X102.141 Y98.184 E6.26774
G1 X102.829 Y97.765 E6.29453
G1 X103.452 Y97.425 E6.31814
G1 X103.839 Y97.227 E6.3326
G1 X104.661 Y96.852 E6.36265
G1 X105.385 Y96.591 E6.38825
G1 X105.99 Y96.402 E6.40933
G1 X106.4 Y96.284 E6.42352
G1 X107.278 Y96.073 E6.45355
G1 X108.024 Y95.956 E6.47867
G1 X108.388 Y95.913 E6.49086
G1 X109.173 Y95.843 E6.51707
G1 X110.076 Y95.809 E6.54713
G1 X110.83 Y95.843 E6.57223
G1 X111.51 Y95.903 E6.59493
G1 X111.941 Y95.952 E6.60936
G1 X112.833 Y96.094 E6.6394
G1 X113.611 Y96.285 E6.66605
G1 X114.21 Y96.462 E6.68682
G1 X114.621 Y96.593 E6.70117
G1 X115.468 Y96.905 E6.73119
G1 X116.154 Y97.223 E6.75634
G1 X116.789 Y97.554 E6.78016
G1 X117.176 Y97.769 E6.79488
G1 X117.945 Y98.242 E6.82491
G1 X118.689 Y98.797 E6.85578
G1 X119.283 Y99.284 E6.88133
G1 X119.955 Y99.887 E6.91136
G1 X120.551 Y100.523 E6.94035
G1 X120.987 Y101.04 E6.96284
G1 X121.289 Y101.418 E6.97894
G1 X121.821 Y102.148 E7.00898
G1 X122.235 Y102.829 E7.03549
G1 X122.575 Y103.452 E7.05909
G1 X122.773 Y103.839 E7.07355
G1 X123.148 Y104.661 E7.1036
G1 X123.407 Y105.376 E7.1289
G1 X123.602 Y106.002 E7.1507
G1 X123.72 Y106.414 E7.16496
G1 X123.93 Y107.292 E7.19498
G1 X124.043 Y108.019 E7.21945
G1 X124.123 Y108.751 E7.24395
G1 X124.157 Y109.166 E7.25779
G1 X124.191 Y110.069 E7.28785
G1 X124.158 Y110.82 E7.31285
G1 X124.129 Y111.179 E7.32483
G1 X124.049 Y111.929 E7.34992
G1 X123.908 Y112.821 E7.37995
G1 X123.722 Y113.584 E7.40608
G1 X123.634 Y113.892 E7.41673
G1 X123.416 Y114.594 E7.44118
G1 X123.106 Y115.443 E7.47124
G1 X122.765 Y116.179 E7.49822
G1 X122.452 Y116.778 E7.5207
G1 X122.237 Y117.166 E7.53545
G1 X121.765 Y117.936 E7.56549
G1 X121.196 Y118.697 E7.59709
G1 X120.708 Y119.291 E7.62266
G1 X120.105 Y119.963 E7.65269
G1 X119.479 Y120.549 E7.68121
G1 X118.963 Y120.984 E7.70366
G1 X118.588 Y121.284 E7.71963
G1 X117.858 Y121.816 E7.74968
G1 X117.182 Y122.229 E7.77602
G1 X116.548 Y122.575 E7.80005
G1 X116.161 Y122.773 E7.8145
G1 X115.339 Y123.148 E7.84456
G1 X114.615 Y123.409 E7.87015
G1 X114.01 Y123.598 E7.89123
G1 X113.6 Y123.716 E7.90542
G1 X112.722 Y123.927 E7.93546
G1 X111.976 Y124.044 E7.96057
G1 X111.612 Y124.087 E7.97276
G1 X110.833 Y124.157 E7.99878
G1 X109.93 Y124.191 E8.02883
G1 X109.179 Y124.158 E8.05384
G1 X108.502 Y124.098 E8.07644
G1 X108.075 Y124.05 E8.09073
G1 X107.182 Y123.91 E8.1208
G1 X106.243 Y123.672 E8.15302
G1 X105.504 Y123.447 E8.17871
G1 X104.653 Y123.146 E8.20873
G1 X103.808 Y122.759 E8.23964
G1 X103.228 Y122.455 E8.26142
G1 X102.843 Y122.242 E8.27606
G1 X102.073 Y121.77 E8.3061
G1 X101.415 Y121.287 E8.33325
G1 X101.087 Y121.025 E8.34721
G1 X100.547 Y120.571 E8.37067
G1 X99.886 Y119.955 E8.40072
G1 X99.395 Y119.417 E8.42495
G1 X98.999 Y118.942 E8.44552
G1 X98.699 Y118.565 E8.46154
G1 X98.168 Y117.834 E8.49159
G1 X97.766 Y117.172 E8.51735
G1 X97.422 Y116.542 E8.54123
G1 X97.228 Y116.163 E8.55539
G1 X96.853 Y115.341 E8.58544
G1 X96.591 Y114.615 E8.61111
G1 X96.396 Y113.991 E8.63285
G1 X96.278 Y113.578 E8.64714
G1 X96.069 Y112.7 E8.67716
G1 X95.958 Y111.982 E8.70132
G1 X95.877 Y111.248 E8.72588
G1 X95.843 Y110.833 E8.73973
G1 X95.809 Y109.93 E8.76979
G1 X95.842 Y109.176 E8.79489
G1 X95.871 Y108.818 E8.80684
G1 X95.952 Y108.062 E8.83213
G1 X96.093 Y107.17 E8.86216
G1 X96.29 Y106.371 E8.88953
G1 X96.462 Y105.79 E8.90969
G1 X96.593 Y105.379 E8.92403
G1 X96.905 Y104.532 E8.95406
G1 X97.229 Y103.834 E8.97965
G1 X97.548 Y103.222 E9.0026
G1 X97.763 Y102.834 E9.01736
G1 X98.235 Y102.064 E9.0474
G1 X98.723 Y101.403 E9.07472
G1 X99.186 Y100.833 E9.09915
G1 X99.44 Y100.536 E9.11215
G1 X100.057 Y99.876 E9.1422
G1 F2700 E4.1422
;MESH:PORTALRADIO - black- front-Cylinder_001.stl
G0 F6000 X106.187 Y107.323
G0 X107.024 Y108.01
G0 X107.753 Y110.929
G0 X108.128 Y111.533
G0 X108.549 Y111.928
G0 X109.496 Y112.544
;TYPE:WALL-INNER
G1 F2700 E9.1422
G1 F900 X110 Y112.593 E9.15904
G1 X110.504 Y112.544 E9.17588
G1 X110.992 Y112.394 E9.19286
G1 X111.441 Y112.155 E9.20978
G1 X111.835 Y111.833 E9.2267
G1 X112.155 Y111.441 E9.24353
G1 X112.395 Y110.991 E9.2605
G1 X112.542 Y110.504 E9.27742
G1 X112.568 Y110.25 E9.28591
G1 X112.593 Y109.999 E9.2943
G1 X112.544 Y109.497 E9.31107
G1 X112.393 Y109.007 E9.32813
G1 X112.155 Y108.559 E9.345
G1 X111.833 Y108.165 E9.36193
G1 X111.442 Y107.845 E9.37873
G1 X110.992 Y107.606 E9.39568
G1 X110.504 Y107.456 E9.41266
G1 X110 Y107.407 E9.4295
G1 X109.496 Y107.456 E9.44634
G1 X109.006 Y107.606 E9.46339
G1 X108.559 Y107.845 E9.48024
G1 X108.165 Y108.167 E9.49717
G1 X107.845 Y108.559 E9.514
G1 X107.603 Y109.009 E9.53099
G1 X107.456 Y109.496 E9.54791
G1 X107.407 Y110.001 E9.56479
G1 X107.456 Y110.504 E9.5816
G1 X107.603 Y110.991 E9.59852
G1 X107.845 Y111.441 E9.61551
G1 X108.165 Y111.833 E9.63234
G1 X108.559 Y112.155 E9.64927
G1 X109.006 Y112.394 E9.66612
G1 X109.496 Y112.544 E9.68317
G0 F6000 X109.418 Y112.938
G1 F900 X110 Y112.995 E9.70262
G1 X110.582 Y112.938 E9.72207
G1 X111.146 Y112.766 E9.74168
G1 X111.665 Y112.49 E9.76123
G1 X112.12 Y112.117 E9.7808
G1 X112.489 Y111.665 E9.80021
G1 X112.767 Y111.144 E9.81985
G1 X112.937 Y110.583 E9.83934
G1 X112.966 Y110.289 E9.84917
G1 X112.995 Y109.999 E9.85886
G1 X112.938 Y109.418 E9.87828
G1 X112.765 Y108.853 E9.89793
G1 X112.49 Y108.336 E9.91741
G1 X112.117 Y107.88 E9.93701
G1 X111.665 Y107.51 E9.95643
G1 X111.146 Y107.234 E9.97598
G1 X110.582 Y107.062 E9.9956
G1 X110 Y107.005 E10.01505
G1 X109.418 Y107.062 E10.0345
G1 X108.852 Y107.234 E10.05417
G1 X108.335 Y107.51 E10.07366
G1 X107.88 Y107.883 E10.09323
G1 X107.511 Y108.335 E10.11264
G1 X107.232 Y108.856 E10.1323
G1 X107.062 Y109.417 E10.15179
G1 X107.005 Y110.001 E10.17131
G1 X107.062 Y110.582 E10.19073
G1 X107.232 Y111.144 E10.21025
G1 X107.511 Y111.665 E10.22991
G1 X107.88 Y112.117 E10.24932
G1 X108.335 Y112.49 E10.26889
G1 X108.852 Y112.766 E10.28838
G1 X109.418 Y112.938 E10.30805
G0 F6000 X109.339 Y113.332
G1 F900 X110 Y113.397 E10.33015
G1 X110.661 Y113.332 E10.35224
G1 X111.301 Y113.137 E10.37449
G1 X111.888 Y112.824 E10.39662
G1 X112.404 Y112.401 E10.41881
G1 X112.824 Y111.888 E10.44086
G1 X113.139 Y111.298 E10.4631
G1 X113.331 Y110.661 E10.48523
G1 X113.364 Y110.329 E10.49633
G1 X113.397 Y109.999 E10.50736
G1 X113.332 Y109.339 E10.52942
G1 X113.137 Y108.699 E10.55167
G1 X112.824 Y108.112 E10.5738
G1 X112.401 Y107.596 E10.59599
G1 X111.888 Y107.176 E10.61804
G1 X111.301 Y106.863 E10.64016
G1 X110.661 Y106.668 E10.66242
G1 X110 Y106.603 E10.68451
G1 X109.339 Y106.668 E10.7066
G1 X108.698 Y106.863 E10.72888
G1 X108.112 Y107.176 E10.75098
G1 X107.596 Y107.599 E10.77317
G1 X107.176 Y108.112 E10.79522
G1 X106.861 Y108.702 E10.81747
G1 X106.668 Y109.339 E10.83961
G1 X106.603 Y110.001 E10.86173
G1 X106.668 Y110.661 E10.88379
G1 X106.861 Y111.298 E10.90593
G1 X107.176 Y111.888 E10.92817
G1 X107.596 Y112.401 E10.95022
G1 X108.112 Y112.824 E10.97242
G1 X108.698 Y113.137 E10.99451
G1 X109.339 Y113.332 E11.0168
G0 F6000 X110 Y113.799
;TYPE:WALL-OUTER
G1 F900 X110.739 Y113.726 E11.04149
G1 X111.455 Y113.509 E11.06638
G1 X112.111 Y113.158 E11.09112
G1 X112.688 Y112.685 E11.11594
G1 X113.158 Y112.111 E11.14061
G1 X113.511 Y111.452 E11.16548
G1 X113.726 Y110.739 E11.19025
G1 X113.762 Y110.368 E11.20265
