;FLAVOR:Marlin
;TIME:260
;Filament used: 0.075229m
;Layer height: 0.16
;MINX:96.198
;MINY:96.198
;MINZ:0.2
;MAXX:123.802
;MAXY:123.802
;MAXZ:12
;Generated with Cura_SteamEngine 5.2.1
M140 S70
M105
M190 S70
M104 S240
M105
M109 S240
M82 ;absolute extrusion mode
; Ender 3 Custom Start G-code
G92 E0 ; Reset Extruder
G28 ; Home all axes
G1 Z2.0 F3000 ; Move Z Axis up little to prevent scratching of Heat Bed
G1 X0.1 Y20 Z0.3 F5000.0 ; Move to start position
G1 X0.1 Y200.0 Z0.3 F1500.0 E15 ; Draw the first line
G1 X0.4 Y200.0 Z0.3 F5000.0 ; Move to side a little
G1 X0.4 Y20 Z0.3 F1500.0 E30 ; Draw the second line
G92 E0 ; Reset Extruder
G1 Z2.0 F3000 ; Move Z Axis up little to prevent scratching of Heat Bed
G1 X5 Y20 Z0.3 F5000.0 ; Move over to prevent blob squish
G92 E0
G92 E0
G1 F2700 E-5
;LAYER_COUNT:67
;LAYER:0
M107
G0 F6000 X100.148 Y100.331 Z0.2
;TYPE:SKIRT
G1 F2700 E0
G1 F900 X101.104 Y99.457 E0.04308
G1 X101.461 Y99.166 E0.0584
G1 X102.226 Y98.594 E0.09017
G1 X103.02 Y98.097 E0.12133
G1 X103.677 Y97.738 E0.14623
G1 X103.917 Y97.616 E0.15518
G1 X104.786 Y97.219 E0.18696
G1 X105.785 Y96.865 E0.22221
G1 X106.235 Y96.729 E0.23785
G1 X107.16 Y96.492 E0.26961
G1 X108.421 Y96.296 E0.31205
G1 X108.88 Y96.251 E0.32739
G1 X109.833 Y96.198 E0.35914
G1 X111.082 Y96.249 E0.40071
G1 X111.561 Y96.295 E0.41672
G1 X112.507 Y96.426 E0.44848
G1 X113.778 Y96.733 E0.49197
G1 X114.23 Y96.87 E0.50768
G1 X115.131 Y97.185 E0.53943
G1 X116.326 Y97.742 E0.58328
G1 X116.744 Y97.967 E0.59907
G1 X117.565 Y98.454 E0.63081
G1 X118.594 Y99.21 E0.67328
G1 X118.959 Y99.511 E0.68902
G1 X119.67 Y100.149 E0.72079
G1 X120.545 Y101.107 E0.76395
G1 X120.839 Y101.468 E0.77943
G1 X121.411 Y102.233 E0.8112
G1 X122.051 Y103.288 E0.85224
G1 X122.272 Y103.701 E0.86782
G1 X122.687 Y104.561 E0.89958
G1 X123.133 Y105.78 E0.94275
G1 X123.27 Y106.233 E0.95849
G1 X123.508 Y107.158 E0.99026
G1 X123.704 Y108.421 E1.03277
G1 X123.749 Y108.88 E1.04811
G1 X123.802 Y109.833 E1.07986
G1 X123.751 Y111.084 E1.1215
G1 X123.705 Y111.562 E1.13747
G1 X123.573 Y112.508 E1.16924
G1 X123.267 Y113.777 E1.21266
G1 X123.13 Y114.229 E1.22837
G1 X122.815 Y115.13 E1.26011
G1 X122.267 Y116.308 E1.30333
G1 X122.044 Y116.724 E1.31902
G1 X121.559 Y117.546 E1.35077
G1 X120.798 Y118.584 E1.39358
G1 X120.495 Y118.952 E1.40943
G1 X119.857 Y119.663 E1.4412
G1 X118.899 Y120.54 E1.4844
G1 X118.541 Y120.832 E1.49977
G1 X117.777 Y121.404 E1.53151
G1 X116.98 Y121.903 E1.56279
G1 X116.305 Y122.271 E1.58836
G1 X116.062 Y122.394 E1.59742
G1 X115.193 Y122.789 E1.62917
G1 X114.21 Y123.136 E1.66384
G1 X113.763 Y123.271 E1.67937
G1 X112.838 Y123.509 E1.71114
G1 X111.579 Y123.704 E1.75351
G1 X111.12 Y123.749 E1.76885
G1 X110.167 Y123.802 E1.80059
G1 X108.916 Y123.751 E1.84224
G1 X108.438 Y123.705 E1.85821
G1 X107.492 Y123.573 E1.88998
G1 X106.23 Y123.269 E1.93315
G1 X105.777 Y123.132 E1.94889
G1 X104.875 Y122.817 E1.98067
G1 X103.674 Y122.258 E2.02473
G1 X103.256 Y122.033 E2.04052
G1 X102.435 Y121.546 E2.07227
G1 X101.404 Y120.789 E2.11481
G1 X101.044 Y120.492 E2.13033
G1 X100.334 Y119.854 E2.16208
G1 X99.48 Y118.922 E2.20413
G1 X99.181 Y118.557 E2.21982
G1 X98.608 Y117.794 E2.25156
G1 X97.935 Y116.687 E2.29465
G1 X97.71 Y116.264 E2.31058
G1 X97.298 Y115.403 E2.34233
G1 X96.854 Y114.181 E2.38557
G1 X96.721 Y113.737 E2.40099
G1 X96.486 Y112.812 E2.43273
G1 X96.3 Y111.613 E2.47309
G1 X96.254 Y111.158 E2.4883
G1 X96.198 Y110.205 E2.52005
G1 X96.248 Y108.919 E2.56285
G1 X96.294 Y108.441 E2.57882
G1 X96.426 Y107.495 E2.61059
G1 X96.743 Y106.192 E2.6552
G1 X96.884 Y105.732 E2.6712
G1 X97.201 Y104.832 E2.70293
G1 X97.728 Y103.702 E2.74441
G1 X97.947 Y103.292 E2.75987
G1 X98.431 Y102.469 E2.79162
G1 X99.205 Y101.412 E2.83519
G1 X99.51 Y101.042 E2.85114
G1 X100.148 Y100.331 E2.88292
G0 F6000 X100.446 Y100.599
G1 F900 X101.357 Y99.767 E2.92395
G1 X101.714 Y99.476 E2.93927
G1 X102.466 Y98.915 E2.97047
G1 X103.218 Y98.445 E2.99997
G1 X103.858 Y98.094 E3.02425
G1 X104.098 Y97.972 E3.0332
G1 X104.952 Y97.583 E3.06441
G1 X105.901 Y97.248 E3.09789
G1 X106.351 Y97.112 E3.11352
G1 X107.259 Y96.88 E3.14469
G1 X108.46 Y96.694 E3.18511
G1 X108.919 Y96.649 E3.20045
G1 X109.855 Y96.598 E3.23163
G1 X111.044 Y96.647 E3.27121
G1 X111.523 Y96.693 E3.28722
G1 X112.451 Y96.823 E3.31838
G1 X113.662 Y97.116 E3.35982
G1 X114.114 Y97.253 E3.37553
G1 X114.999 Y97.563 E3.40672
G1 X116.137 Y98.094 E3.44849
G1 X116.555 Y98.319 E3.46428
G1 X117.361 Y98.798 E3.49546
G1 X118.339 Y99.518 E3.53585
G1 X118.704 Y99.819 E3.55159
G1 X119.402 Y100.446 E3.5828
G1 X120.235 Y101.36 E3.62393
G1 X120.529 Y101.721 E3.63941
G1 X121.09 Y102.473 E3.67062
G1 X121.699 Y103.477 E3.70967
G1 X121.92 Y103.89 E3.72525
G1 X122.327 Y104.735 E3.75645
G1 X122.75 Y105.896 E3.79755
G1 X122.887 Y106.349 E3.81329
G1 X123.12 Y107.257 E3.84447
G1 X123.306 Y108.46 E3.88495
G1 X123.351 Y108.919 E3.90029
G1 X123.402 Y109.855 E3.93147
G1 X123.352 Y111.046 E3.97112
G1 X123.306 Y111.524 E3.98709
G1 X123.177 Y112.453 E4.01828
G1 X122.884 Y113.661 E4.05963
G1 X122.747 Y114.113 E4.07534
G1 X122.437 Y114.998 E4.10653
G1 X121.915 Y116.119 E4.14765
G1 X121.692 Y116.535 E4.16335
G1 X121.214 Y117.342 E4.19455
G1 X120.489 Y118.33 E4.23531
G1 X120.186 Y118.698 E4.25116
G1 X119.559 Y119.396 E4.28237
G1 X118.647 Y120.23 E4.32347
G1 X118.289 Y120.522 E4.33884
G1 X117.537 Y121.083 E4.37004
G1 X116.782 Y121.555 E4.39966
G1 X116.125 Y121.914 E4.42456
G1 X115.882 Y122.037 E4.43362
G1 X115.028 Y122.425 E4.46482
G1 X114.094 Y122.753 E4.49774
G1 X113.647 Y122.888 E4.51327
G1 X112.739 Y123.121 E4.54445
G1 X111.54 Y123.306 E4.5848
G1 X111.081 Y123.351 E4.60014
G1 X110.145 Y123.402 E4.63132
G1 X108.954 Y123.352 E4.67097
G1 X108.476 Y123.306 E4.68694
G1 X107.547 Y123.177 E4.71813
G1 X106.346 Y122.886 E4.75924
G1 X105.893 Y122.749 E4.77498
G1 X105.007 Y122.44 E4.80619
G1 X103.863 Y121.906 E4.84818
G1 X103.445 Y121.681 E4.86397
G1 X102.639 Y121.202 E4.89515
G1 X101.659 Y120.48 E4.93564
G1 X101.299 Y120.183 E4.95116
G1 X100.601 Y119.556 E4.98236
G1 X99.79 Y118.669 E5.02234
G1 X99.491 Y118.304 E5.03803
G1 X98.928 Y117.553 E5.06925
G1 X98.288 Y116.499 E5.11026
G1 X98.063 Y116.076 E5.1262
G1 X97.659 Y115.23 E5.15738
G1 X97.238 Y114.066 E5.19855
G1 X97.105 Y113.622 E5.21397
G1 X96.874 Y112.713 E5.24516
G1 X96.698 Y111.572 E5.28356
G1 X96.652 Y111.117 E5.29877
G1 X96.597 Y110.181 E5.32995
G1 X96.647 Y108.957 E5.3707
G1 X96.693 Y108.479 E5.38667
G1 X96.822 Y107.55 E5.41787
G1 X97.125 Y106.309 E5.46035
G1 X97.266 Y105.849 E5.47636
G1 X97.579 Y104.965 E5.50755
G1 X98.08 Y103.89 E5.54699
G1 X98.299 Y103.48 E5.56245
G1 X98.776 Y102.673 E5.59363
G1 X99.514 Y101.666 E5.63516
G1 X99.819 Y101.296 E5.65111
G1 X100.446 Y100.599 E5.68229
G0 F6000 X100.744 Y100.866
G1 F900 X101.61 Y100.077 E5.72125
G1 X101.967 Y99.786 E5.73657
G1 X102.705 Y99.236 E5.76718
G1 X103.416 Y98.792 E5.79506
G1 X104.04 Y98.451 E5.81872
G1 X104.28 Y98.329 E5.82767
G1 X105.118 Y97.948 E5.85829
G1 X106.016 Y97.631 E5.88996
G1 X106.466 Y97.495 E5.9056
G1 X107.358 Y97.267 E5.93622
G1 X108.499 Y97.093 E5.97461
G1 X108.958 Y97.048 E5.98995
G1 X109.877 Y96.998 E6.02056
G1 X111.005 Y97.046 E6.05811
G1 X111.484 Y97.092 E6.07411
G1 X112.396 Y97.219 E6.10474
G1 X113.546 Y97.499 E6.14411
G1 X113.998 Y97.636 E6.15982
G1 X114.866 Y97.941 E6.19042
G1 X115.947 Y98.446 E6.2301
G1 X116.365 Y98.671 E6.24589
G1 X117.156 Y99.142 E6.27651
G1 X118.085 Y99.827 E6.3149
G1 X118.45 Y100.128 E6.33063
G1 X119.134 Y100.744 E6.36125
G1 X119.925 Y101.612 E6.40031
G1 X120.219 Y101.973 E6.41579
G1 X120.769 Y102.712 E6.44643
G1 X121.346 Y103.666 E6.48352
G1 X121.567 Y104.079 E6.4991
G1 X121.966 Y104.909 E6.52973
G1 X122.367 Y106.012 E6.56876
G1 X122.504 Y106.465 E6.5845
G1 X122.732 Y107.356 E6.61509
G1 X122.907 Y108.499 E6.65355
G1 X122.952 Y108.958 E6.66889
G1 X123.002 Y109.877 E6.6995
G1 X122.954 Y111.007 E6.73712
G1 X122.908 Y111.485 E6.75309
G1 X122.78 Y112.397 E6.78372
G1 X122.501 Y113.545 E6.82302
G1 X122.364 Y113.997 E6.83872
G1 X122.059 Y114.865 E6.86932
G1 X121.562 Y115.93 E6.90841
G1 X121.339 Y116.346 E6.92411
G1 X120.87 Y117.138 E6.95473
G1 X120.18 Y118.076 E6.99346
G1 X119.877 Y118.444 E7.00931
G1 X119.262 Y119.128 E7.03991
G1 X118.394 Y119.92 E7.07899
G1 X118.036 Y120.212 E7.09435
G1 X117.298 Y120.763 E7.12498
G1 X116.584 Y121.208 E7.15297
G1 X115.944 Y121.557 E7.17721
G1 X115.701 Y121.68 E7.18627
G1 X114.862 Y122.06 E7.21691
G1 X113.979 Y122.37 E7.24803
G1 X113.532 Y122.505 E7.26356
G1 X112.64 Y122.733 E7.29418
G1 X111.501 Y122.907 E7.33251
G1 X111.042 Y122.952 E7.34785
G1 X110.123 Y123.002 E7.37846
G1 X108.993 Y122.954 E7.41608
G1 X108.515 Y122.908 E7.43205
G1 X107.603 Y122.78 E7.46268
G1 X106.462 Y122.503 E7.50173
G1 X106.009 Y122.366 E7.51747
G1 X105.14 Y122.062 E7.54809
G1 X104.053 Y121.554 E7.588
G1 X103.635 Y121.329 E7.60379
G1 X102.844 Y120.858 E7.63441
G1 X101.913 Y120.172 E7.67287
G1 X101.553 Y119.875 E7.68839
G1 X100.869 Y119.258 E7.71903
G1 X100.099 Y118.415 E7.75701
G1 X99.8 Y118.05 E7.7727
G1 X99.248 Y117.313 E7.80332
G1 X98.642 Y116.311 E7.84227
G1 X98.417 Y115.888 E7.85821
G1 X98.02 Y115.057 E7.88884
G1 X97.621 Y113.952 E7.92791
G1 X97.488 Y113.508 E7.94333
G1 X97.262 Y112.615 E7.97397
G1 X97.096 Y111.532 E8.01041
G1 X97.05 Y111.077 E8.02562
G1 X96.997 Y110.158 E8.05624
G1 X97.045 Y108.996 E8.09492
G1 X97.091 Y108.518 E8.11089
G1 X97.219 Y107.606 E8.14152
G1 X97.507 Y106.427 E8.18189
G1 X97.648 Y105.967 E8.19789
G1 X97.956 Y105.099 E8.22852
G1 X98.433 Y104.079 E8.26597
G1 X98.652 Y103.669 E8.28143
G1 X99.121 Y102.876 E8.31208
G1 X99.823 Y101.921 E8.3515
G1 X100.128 Y101.551 E8.36745
G1 X100.744 Y100.866 E8.39809
G0 F6000 X101.041 Y101.134
G1 F900 X101.862 Y100.387 E8.43501
G1 X102.219 Y100.096 E8.45032
G1 X102.944 Y99.557 E8.48037
G1 X103.614 Y99.14 E8.50662
G1 X104.221 Y98.807 E8.52965
G1 X104.461 Y98.685 E8.5386
G1 X105.283 Y98.312 E8.56862
G1 X106.132 Y98.014 E8.59855
G1 X106.582 Y97.878 E8.61419
G1 X107.457 Y97.655 E8.64422
G1 X108.538 Y97.491 E8.68059
G1 X108.997 Y97.446 E8.69593
G1 X109.899 Y97.397 E8.72597
G1 X110.967 Y97.444 E8.76153
G1 X111.446 Y97.49 E8.77753
G1 X112.34 Y97.616 E8.80756
G1 X113.43 Y97.882 E8.84488
G1 X113.882 Y98.019 E8.86059
G1 X114.734 Y98.318 E8.89062
G1 X115.758 Y98.799 E8.92825
G1 X116.176 Y99.024 E8.94404
G1 X116.951 Y99.486 E8.97404
G1 X117.831 Y100.136 E9.01043
G1 X118.196 Y100.437 E9.02617
G1 X118.866 Y101.042 E9.05619
G1 X119.615 Y101.865 E9.0932
G1 X119.909 Y102.226 E9.10869
G1 X120.448 Y102.951 E9.13874
G1 X120.993 Y103.855 E9.17385
G1 X121.214 Y104.268 E9.18943
G1 X121.605 Y105.082 E9.21946
G1 X121.984 Y106.127 E9.25643
G1 X122.121 Y106.58 E9.27217
G1 X122.344 Y107.455 E9.30221
G1 X122.509 Y108.538 E9.33864
G1 X122.554 Y108.997 E9.35398
G1 X122.603 Y109.899 E9.38403
G1 X122.556 Y110.969 E9.41965
G1 X122.51 Y111.447 E9.43562
G1 X122.384 Y112.341 E9.46565
G1 X122.118 Y113.429 E9.5029
G1 X121.981 Y113.881 E9.51861
G1 X121.682 Y114.733 E9.54864
G1 X121.21 Y115.741 E9.58566
G1 X120.987 Y116.157 E9.60136
G1 X120.525 Y116.933 E9.6314
G1 X119.871 Y117.821 E9.66808
G1 X119.568 Y118.189 E9.68394
G1 X118.964 Y118.861 E9.71399
G1 X118.141 Y119.61 E9.751
G1 X117.783 Y119.902 E9.76637
G1 X117.059 Y120.441 E9.79639
G1 X116.386 Y120.86 E9.82275
G1 X115.763 Y121.201 E9.84638
G1 X115.52 Y121.324 E9.85543
G1 X114.697 Y121.695 E9.88546
G1 X113.863 Y121.987 E9.91485
G1 X113.416 Y122.122 E9.93038
G1 X112.541 Y122.345 E9.96041
G1 X111.462 Y122.509 E9.99671
G1 X111.003 Y122.554 E10.01205
G1 X110.101 Y122.603 E10.0421
G1 X109.031 Y122.556 E10.07772
G1 X108.553 Y122.51 E10.09369
G1 X107.659 Y122.384 E10.12372
G1 X106.577 Y122.12 E10.16076
G1 X106.124 Y121.983 E10.1765
G1 X105.272 Y121.684 E10.20654
G1 X104.242 Y121.201 E10.24437
G1 X103.824 Y120.976 E10.26016
G1 X103.049 Y120.514 E10.29017
G1 X102.168 Y119.863 E10.32661
G1 X101.808 Y119.566 E10.34213
G1 X101.137 Y118.961 E10.37218
G1 X100.408 Y118.162 E10.40815
G1 X100.109 Y117.797 E10.42385
G1 X99.569 Y117.073 E10.45389
G1 X98.995 Y116.123 E10.4908
G1 X98.77 Y115.7 E10.50674
G1 X98.381 Y114.885 E10.53678
G1 X98.004 Y113.837 E10.57382
G1 X97.871 Y113.393 E10.58923
G1 X97.65 Y112.517 E10.61928
G1 X97.494 Y111.492 E10.65377
G1 X97.448 Y111.037 E10.66898
G1 X97.397 Y110.135 E10.69903
G1 X97.443 Y109.034 E10.73568
G1 X97.489 Y108.556 E10.75165
G1 X97.615 Y107.662 E10.78168
G1 X97.89 Y106.544 E10.81997
G1 X98.031 Y106.084 E10.83597
G1 X98.333 Y105.233 E10.86601
G1 X98.786 Y104.267 E10.90149
G1 X99.005 Y103.857 E10.91695
G1 X99.465 Y103.08 E10.94699
G1 X100.131 Y102.175 E10.98436
G1 X100.436 Y101.805 E11.00031
G1 X101.041 Y101.134 E11.03036
G1 F2700 E6.03036
;MESH:PORTALRADIO - black- front-Sphere_004.stl
G0 F6000 X107.753 Y107.904
G0 X108.591 Y108.591
G0 X109.298 Y110.468
G0 X109.637 Y110.747
G0 X110.387 Y110.928
;TYPE:WALL-INNER
G1 F2700 E11.03036
G1 F900 X110.713 Y110.71 E11.0434
G1 X110.929 Y110.385 E11.05638
G1 X110.996 Y110.095 E11.06628
G1 X110.987 Y109.808 E11.07583
G1 X110.836 Y109.442 E11.089
G1 X110.559 Y109.164 E11.10205
G1 X110.192 Y109.013 E11.11525
G1 X109.808 Y109.013 E11.12802
G1 X109.614 Y109.072 E11.13477
G1 X109.287 Y109.29 E11.14784
G1 X109.071 Y109.617 E11.16087
G1 X109.013 Y109.806 E11.16745
G1 X109.013 Y110.193 E11.18032
G1 X109.163 Y110.557 E11.19341
G1 X109.288 Y110.71 E11.19999
G1 X109.613 Y110.928 E11.213
G1 X109.808 Y110.987 E11.21978
G1 X110.192 Y110.987 E11.23255
G1 X110.387 Y110.928 E11.23933
G0 F6000 X110.271 Y111.381
G1 F900 X110.541 Y111.299 E11.24871
G1 X110.781 Y111.171 E11.25776
G1 X110.997 Y110.994 E11.26705
G1 X111.17 Y110.782 E11.27615
G1 X111.3 Y110.538 E11.28534
G1 X111.381 Y110.272 E11.29459
G1 X111.394 Y110.135 E11.29917
G1 X111.408 Y109.999 E11.30371
G1 X111.381 Y109.729 E11.31274
G1 X111.299 Y109.463 E11.322
G1 X111.171 Y109.219 E11.33116
G1 X110.994 Y109.003 E11.34045
G1 X110.782 Y108.83 E11.34955
G1 X110.541 Y108.704 E11.3586
G1 X110.271 Y108.619 E11.36801
G1 X110 Y108.592 E11.37707
G1 X109.729 Y108.619 E11.38613
G1 X109.46 Y108.701 E11.39548
G1 X109.219 Y108.83 E11.40457
G1 X109.003 Y109.006 E11.41384
G1 X108.83 Y109.218 E11.42294
G1 X108.699 Y109.463 E11.43218
G1 X108.619 Y109.728 E11.44139
G1 X108.592 Y110.001 E11.45051
G1 X108.619 Y110.272 E11.45957
G1 X108.7 Y110.538 E11.46882
G1 X108.829 Y110.78 E11.47794
G1 X109.003 Y110.994 E11.48711
G1 X109.219 Y111.17 E11.49638
G1 X109.459 Y111.299 E11.50544
G1 X109.729 Y111.381 E11.51483
G1 X110 Y111.408 E11.52389
G1 X110.271 Y111.381 E11.53294
G0 F6000 X110 Y111.81
G1 F900 X110.35 Y111.775 E11.54464
G1 X110.695 Y111.671 E11.55663
G1 X111.004 Y111.505 E11.56829
G1 X111.282 Y111.278 E11.58023
G1 X111.505 Y111.004 E11.59198
G1 X111.672 Y110.692 E11.60375
G1 X111.775 Y110.351 E11.6156
G1 X111.792 Y110.175 E11.62148
G1 X111.81 Y109.999 E11.62737
G1 X111.775 Y109.65 E11.63903
G1 X111.671 Y109.307 E11.65095
G1 X111.505 Y108.996 E11.66268
G1 X111.278 Y108.718 E11.67462
G1 X111.004 Y108.495 E11.68637
G1 X110.695 Y108.331 E11.698
G1 X110.35 Y108.225 E11.71
G1 X110 Y108.19 E11.7217
G1 X109.65 Y108.225 E11.7334
G1 X109.306 Y108.329 E11.74536
G1 X108.996 Y108.495 E11.75705
G1 X108.718 Y108.722 E11.76899
G1 X108.495 Y108.996 E11.78074
G1 X108.328 Y109.309 E11.79254
G1 X108.225 Y109.649 E11.80435
G1 X108.19 Y110.001 E11.81612
G1 X108.225 Y110.351 E11.82782
G1 X108.328 Y110.692 E11.83967
G1 X108.494 Y111.002 E11.85136
G1 X108.719 Y111.278 E11.86321
G1 X108.996 Y111.505 E11.87512
G1 X109.305 Y111.67 E11.88677
G1 X109.65 Y111.775 E11.89876
G1 X110 Y111.81 E11.91046
G0 F6000 X110 Y112.212
;TYPE:WALL-OUTER
G1 F900 X110.429 Y112.169 E11.9248
G1 X110.849 Y112.042 E11.9394
