;FLAVOR:Marlin
;TIME:242
;Filament used: 0.156559m
;Layer height: 0.16
;MINX:38.351
;MINY:98.442
;MINZ:0.2
;MAXX:181.649
;MAXY:121.559
;MAXZ:1.72
;Generated with Cura_SteamEngine 5.2.1
M140 S70
M105
M190 S70
M104 S240
M105
M109 S240
M82 ;absolute extrusion mode
; Ender 3 Custom Start G-code
G92 E0 ; Reset Extruder
G28 ; Home all axes
G1 Z2.0 F3000 ; Move Z Axis up little to prevent scratching of Heat Bed
G1 X0.1 Y20 Z0.3 F5000.0 ; Move to start position
G1 X0.1 Y200.0 Z0.3 F1500.0 E15 ; Draw the first line
G1 X0.4 Y200.0 Z0.3 F5000.0 ; Move to side a little
G1 X0.4 Y20 Z0.3 F1500.0 E30 ; Draw the second line
G92 E0 ; Reset Extruder
G1 Z2.0 F3000 ; Move Z Axis up little to prevent scratching of Heat Bed
G1 X5 Y20 Z0.3 F5000.0 ; Move over to prevent blob squish
G92 E0
G92 E0
G1 F2700 E-5
;LAYER_COUNT:10
;LAYER:0
M107
G0 F6000 X44.585 Y99.541 Z0.2
;TYPE:SKIRT
G1 F2700 E0
G1 F900 X45.447 Y99.171 E0.0312
G1 X46.337 Y98.875 E0.0624
G1 X47.249 Y98.656 E0.09359
G1 X48.176 Y98.515 E0.12478
G1 X49.051 Y98.455 E0.15395
G1 X49.68 Y98.442 E0.17487
G1 X170.101 Y98.443 E4.18009
G1 X170.799 Y98.453 E4.20331
G1 X171.735 Y98.507 E4.23449
G1 X172.663 Y98.639 E4.26567
G1 X173.577 Y98.851 E4.29688
G1 X174.469 Y99.14 E4.32806
G1 X175.334 Y99.503 E4.35926
G1 X176.164 Y99.939 E4.39045
G1 X176.955 Y100.444 E4.42166
G1 X177.699 Y101.015 E4.45285
G1 X178.392 Y101.647 E4.48405
G1 X179.029 Y102.335 E4.51523
G1 X179.604 Y103.076 E4.54643
G1 X180.115 Y103.862 E4.57761
G1 X180.557 Y104.69 E4.60883
G1 X180.926 Y105.552 E4.64001
G1 X181.221 Y106.442 E4.6712
G1 X181.439 Y107.354 E4.70239
G1 X181.579 Y108.282 E4.7336
G1 X181.636 Y109.128 E4.7618
G1 X181.649 Y109.882 E4.78689
G1 X181.64 Y110.675 E4.81326
G1 X181.59 Y111.611 E4.84444
G1 X181.459 Y112.54 E4.87564
G1 X181.251 Y113.454 E4.90682
G1 X180.965 Y114.348 E4.93804
G1 X180.604 Y115.213 E4.96921
G1 X180.17 Y116.045 E5.00043
G1 X179.667 Y116.837 E5.03163
G1 X179.099 Y117.583 E5.06282
G1 X178.469 Y118.278 E5.09402
G1 X177.783 Y118.916 E5.12517
G1 X177.044 Y119.494 E5.15638
G1 X176.259 Y120.007 E5.18757
G1 X175.433 Y120.451 E5.21876
G1 X174.572 Y120.824 E5.24997
G1 X173.682 Y121.121 E5.28117
G1 X172.771 Y121.342 E5.31235
G1 X171.844 Y121.484 E5.34355
G1 X170.949 Y121.546 E5.37338
G1 X170.32 Y121.559 E5.39431
G1 X49.914 Y121.557 E9.39903
G1 X49.218 Y121.548 E9.42218
G1 X48.281 Y121.496 E9.45339
G1 X47.353 Y121.364 E9.48457
G1 X46.439 Y121.154 E9.51576
G1 X45.546 Y120.867 E9.54696
G1 X44.681 Y120.504 E9.57816
G1 X43.85 Y120.069 E9.60936
G1 X43.059 Y119.566 E9.64053
G1 X42.314 Y118.996 E9.67173
G1 X41.62 Y118.365 E9.70293
G1 X40.982 Y117.677 E9.73414
G1 X40.405 Y116.938 E9.76532
G1 X39.894 Y116.152 E9.7965
G1 X39.451 Y115.325 E9.82771
G1 X39.08 Y114.464 E9.85889
G1 X38.784 Y113.574 E9.89009
G1 X38.565 Y112.662 E9.92128
G1 X38.424 Y111.735 E9.95247
G1 X38.365 Y110.879 E9.98101
G1 X38.351 Y110.072 E10.00785
G1 X38.361 Y109.307 E10.0333
G1 X38.413 Y108.371 E10.06448
G1 X38.545 Y107.442 E10.09569
G1 X38.755 Y106.528 E10.12688
G1 X39.043 Y105.636 E10.15805
G1 X39.405 Y104.771 E10.18924
G1 X39.84 Y103.94 E10.22044
G1 X40.344 Y103.149 E10.25163
G1 X40.914 Y102.404 E10.28283
G1 X41.545 Y101.71 E10.31403
G1 X42.233 Y101.072 E10.34524
G1 X42.972 Y100.496 E10.3764
G1 X43.759 Y99.984 E10.40763
G1 X44.585 Y99.541 E10.4388
G0 F6000 X44.958 Y99.808
G1 F900 X45.811 Y99.463 E10.46941
G1 X46.691 Y99.192 E10.50003
G1 X47.591 Y99 E10.53064
G1 X48.505 Y98.886 E10.56128
G1 X49.062 Y98.855 E10.57983
G1 X49.68 Y98.842 E10.60039
G1 X170.095 Y98.843 E14.60541
G1 X170.793 Y98.853 E14.62863
G1 X171.712 Y98.906 E14.65924
G1 X172.623 Y99.039 E14.68986
G1 X173.519 Y99.25 E14.72048
G1 X174.393 Y99.538 E14.75109
G1 X175.24 Y99.901 E14.78174
G1 X176.051 Y100.336 E14.81235
G1 X176.821 Y100.84 E14.84296
G1 X177.545 Y101.409 E14.87358
G1 X178.217 Y102.039 E14.90422
G1 X178.832 Y102.724 E14.93484
G1 X179.385 Y103.46 E14.96546
G1 X179.872 Y104.241 E14.99607
G1 X180.289 Y105.062 E15.0267
G1 X180.634 Y105.916 E15.05733
G1 X180.903 Y106.796 E15.08794
G1 X181.095 Y107.697 E15.11858
G1 X181.208 Y108.61 E15.14917
G1 X181.236 Y109.139 E15.16679
G1 X181.249 Y109.877 E15.19134
G1 X181.24 Y110.67 E15.21772
G1 X181.19 Y111.59 E15.24837
G1 X181.06 Y112.501 E15.27897
G1 X180.851 Y113.398 E15.30961
G1 X180.566 Y114.273 E15.34021
G1 X180.205 Y115.12 E15.37084
G1 X179.773 Y115.933 E15.40146
G1 X179.271 Y116.705 E15.43209
G1 X178.704 Y117.43 E15.4627
G1 X178.077 Y118.104 E15.49332
G1 X177.393 Y118.721 E15.52395
G1 X176.659 Y119.276 E15.55456
G1 X175.879 Y119.765 E15.58518
G1 X175.06 Y120.185 E15.61579
G1 X174.207 Y120.532 E15.64642
G1 X173.327 Y120.804 E15.67706
G1 X172.428 Y120.998 E15.70765
G1 X171.514 Y121.114 E15.73829
G1 X170.938 Y121.146 E15.75748
G1 X170.32 Y121.159 E15.77804
G1 X49.919 Y121.157 E19.78259
G1 X49.223 Y121.148 E19.80574
G1 X48.304 Y121.096 E19.83635
G1 X47.393 Y120.965 E19.86697
G1 X46.496 Y120.755 E19.89761
G1 X45.621 Y120.468 E19.92824
G1 X44.775 Y120.106 E19.95884
G1 X43.963 Y119.672 E19.98946
G1 X43.192 Y119.169 E20.02008
G1 X42.467 Y118.602 E20.05069
G1 X41.794 Y117.973 E20.08133
G1 X41.178 Y117.289 E20.11195
G1 X40.624 Y116.553 E20.14259
G1 X40.136 Y115.773 E20.17319
G1 X39.718 Y114.952 E20.20383
G1 X39.372 Y114.099 E20.23445
G1 X39.102 Y113.219 E20.26506
G1 X38.909 Y112.319 E20.29568
G1 X38.795 Y111.405 E20.32631
G1 X38.765 Y110.867 E20.34424
G1 X38.751 Y110.077 E20.37052
G1 X38.761 Y109.312 E20.39596
G1 X38.813 Y108.393 E20.42658
G1 X38.944 Y107.482 E20.45719
G1 X39.155 Y106.586 E20.4878
G1 X39.442 Y105.711 E20.51843
G1 X39.804 Y104.864 E20.54907
G1 X40.238 Y104.053 E20.57966
G1 X40.741 Y103.281 E20.61031
G1 X41.308 Y102.557 E20.64089
G1 X41.937 Y101.884 E20.67153
G1 X42.622 Y101.268 E20.70217
G1 X43.357 Y100.715 E20.73277
G1 X44.138 Y100.227 E20.7634
G1 X44.958 Y99.808 E20.79402
G0 F6000 X45.329 Y100.082
G1 F900 X46.173 Y99.762 E20.82405
G1 X47.043 Y99.518 E20.8541
G1 X47.93 Y99.352 E20.88411
G1 X49.073 Y99.255 E20.92227
G1 X49.68 Y99.242 E20.94246
G1 X170.089 Y99.243 E24.94728
G1 X170.787 Y99.253 E24.9705
G1 X171.689 Y99.306 E25.00055
G1 X172.582 Y99.438 E25.03057
G1 X173.46 Y99.649 E25.06061
G1 X174.316 Y99.937 E25.09065
G1 X175.143 Y100.299 E25.12067
G1 X175.935 Y100.734 E25.15073
G1 X176.686 Y101.236 E25.18077
G1 X177.389 Y101.803 E25.21081
G1 X178.039 Y102.43 E25.24085
G1 X178.631 Y103.112 E25.27088
G1 X179.161 Y103.843 E25.30092
G1 X179.623 Y104.619 E25.33095
G1 X180.016 Y105.432 E25.36099
G1 X180.334 Y106.277 E25.39102
G1 X180.577 Y107.147 E25.42106
G1 X180.742 Y108.035 E25.4511
G1 X180.837 Y109.151 E25.48835
G1 X180.849 Y109.873 E25.51237
G1 X180.84 Y110.666 E25.53875
G1 X180.79 Y111.567 E25.56876
G1 X180.66 Y112.461 E25.59881
G1 X180.452 Y113.34 E25.62885
G1 X180.167 Y114.197 E25.65889
G1 X179.807 Y115.025 E25.68892
G1 X179.375 Y115.818 E25.71896
G1 X178.875 Y116.57 E25.74899
G1 X178.31 Y117.275 E25.77904
G1 X177.685 Y117.927 E25.80908
G1 X177.005 Y118.521 E25.83911
G1 X176.275 Y119.053 E25.86915
G1 X175.501 Y119.518 E25.89919
G1 X174.689 Y119.913 E25.92922
G1 X173.845 Y120.234 E25.95925
G1 X172.975 Y120.479 E25.98931
G1 X172.088 Y120.647 E26.01934
G1 X170.927 Y120.746 E26.0581
G1 X170.32 Y120.759 E26.07829
G1 X49.924 Y120.757 E30.08268
G1 X49.228 Y120.748 E30.10583
G1 X48.326 Y120.697 E30.13588
G1 X47.433 Y120.565 E30.1659
G1 X46.555 Y120.356 E30.19592
G1 X45.698 Y120.069 E30.22598
G1 X44.87 Y119.708 E30.25602
G1 X44.078 Y119.275 E30.28604
G1 X43.327 Y118.773 E30.31609
G1 X42.623 Y118.207 E30.34613
G1 X41.972 Y117.582 E30.37615
G1 X41.379 Y116.9 E30.40621
G1 X40.848 Y116.17 E30.43623
G1 X40.385 Y115.395 E30.46626
G1 X39.991 Y114.582 E30.49631
G1 X39.671 Y113.737 E30.52636
G1 X39.427 Y112.868 E30.55638
G1 X39.261 Y111.98 E30.58643
G1 X39.165 Y110.855 E30.62398
G1 X39.151 Y110.083 E30.64966
G1 X39.161 Y109.318 E30.67511
G1 X39.213 Y108.416 E30.70516
G1 X39.344 Y107.523 E30.73518
G1 X39.554 Y106.644 E30.76523
G1 X39.841 Y105.788 E30.79526
G1 X40.202 Y104.96 E30.82531
G1 X40.635 Y104.168 E30.85533
G1 X41.136 Y103.417 E30.88535
G1 X41.702 Y102.713 E30.9154
G1 X42.329 Y102.062 E30.94546
G1 X43.01 Y101.469 E30.97549
G1 X43.741 Y100.939 E31.00553
G1 X44.516 Y100.475 E31.03557
G1 X45.329 Y100.082 E31.0656
G1 F2700 E26.0656
;MESH:PORTALRADIO - black- front-Sphere_005.stl
G0 F6000 X49.764 Y108.777
G0 X49.629 Y110.279
;TYPE:WALL-OUTER
G1 F2700 E31.0656
G1 F645.2 X170.371 Y110.279 E36.66778
G1 X170.371 Y110 E36.68072
G1 X170.371 Y109.721 E36.69367
G1 X49.629 Y109.721 E42.29584
G1 X49.629 Y110.279 E42.32173
;MESH:NONMESH
G0 F300 X49.629 Y110.279 Z0.36
G0 F6000 X49.55 Y110.514
;TIME_ELAPSED:90.115670
;LAYER:1
M106 S42.5
;TYPE:WALL-OUTER
;MESH:PORTALRADIO - black- front-Sphere_005.stl
G1 F1200 X170.45 Y110.514 E45.53865
G1 X170.45 Y110 E45.55233
G1 X170.45 Y109.486 E45.566
G1 X49.55 Y109.486 E48.78292
G1 X49.55 Y110.514 E48.81028
G0 F7500 X50.064 Y110
;TYPE:WALL-INNER
G1 F764.3 X169.936 Y110 E53.8179
G1 F2700 E48.8179
;MESH:NONMESH
G0 F300 X169.936 Y110 Z0.56
G0 F7500 X49.965 Y110.215
;TIME_ELAPSED:113.313691
;LAYER:2
M106 S85
;TYPE:WALL-INNER
;MESH:PORTALRADIO - black- front-Sphere_005.stl
G1 F2700 E53.8179
G1 F1395.3 X170.035 Y110.215 E58.11096
G1 X170.035 Y110 E58.11865
G1 X170.035 Y109.785 E58.12633
G1 X49.965 Y109.785 E62.41939
G1 X49.965 Y110.215 E62.43477
G0 F9000 X49.55 Y110.63
;TYPE:WALL-OUTER
G1 F1500 X170.45 Y110.63 E66.45592
G1 X170.45 Y110 E66.47687
G1 X170.45 Y109.37 E66.49783
G1 X49.55 Y109.37 E70.51898
G1 X49.55 Y110.63 E70.56088
;MESH:NONMESH
G0 F300 X49.55 Y110.63 Z0.76
G0 F9000 X49.991 Y110.242
;TIME_ELAPSED:134.020466
;LAYER:3
M106 S127.5
;TYPE:WALL-INNER
;MESH:PORTALRADIO - black- front-Sphere_005.stl
G1 F1242.2 X170.009 Y110.242 E75.381
G1 X170.009 Y110 E75.39072
G1 X170.009 Y109.758 E75.40044
G1 X49.991 Y109.758 E80.22055
G1 X49.991 Y110.242 E80.23999
G0 F9000 X49.55 Y110.683
;TYPE:WALL-OUTER
G1 F1500 X170.45 Y110.683 E84.26114
G1 X170.45 Y110 E84.28386
G1 X170.45 Y109.317 E84.30658
G1 X49.55 Y109.317 E88.32773
G1 X49.55 Y110.683 E88.37316
;MESH:NONMESH
G0 F300 X49.55 Y110.683 Z0.96
G0 F9000 X49.995 Y110.245
;TIME_ELAPSED:155.809557
;LAYER:4
;TYPE:WALL-INNER
;MESH:PORTALRADIO - black- front-Sphere_005.stl
G1 F1227 X170.006 Y110.245 E93.25287
G1 X170.006 Y109.755 E93.27279
G1 X49.995 Y109.756 E98.1525
G1 F1224.5 X49.995 Y110.245 E98.17243
G0 F9000 X49.55 Y110.69
;TYPE:WALL-OUTER
G1 F1500 X170.45 Y110.689 E102.19358
G1 X170.45 Y109.311 E102.23941
G1 X49.55 Y109.311 E106.26056
G1 X49.55 Y110.69 E106.30642
;MESH:NONMESH
G0 F300 X49.55 Y110.69 Z1.16
G0 F9000 X49.976 Y110.226
;TIME_ELAPSED:177.743340
;LAYER:5
;TYPE:WALL-INNER
;MESH:PORTALRADIO - black- front-Sphere_005.stl
G1 F1327.4 X170.024 Y110.226 E110.8183
G1 X170.024 Y110 E110.8268
G1 X170.024 Y109.774 E110.83529
G1 X49.976 Y109.774 E115.34717
G1 X49.976 Y110.226 E115.36416
G0 F9000 X49.55 Y110.652
;TYPE:WALL-OUTER
G1 F1500 X170.45 Y110.652 E119.38531
G1 X170.45 Y110 E119.40699
G1 X170.45 Y109.348 E119.42868
G1 X49.55 Y109.348 E123.44983
G1 X49.55 Y110.652 E123.4932
;MESH:NONMESH
G0 F300 X49.55 Y110.652 Z1.36
G0 F9000 X49.931 Y110.182
;TIME_ELAPSED:198.785218
;LAYER:6
;TYPE:WALL-INNER
;MESH:PORTALRADIO - black- front-Sphere_005.stl
G1 F1657.5 X170.069 Y110.181 E127.1094
G1 X170.069 Y110 E127.11485
G1 X170.069 Y109.819 E127.1203
G1 X49.931 Y109.819 E130.73651
G1 F1652.9 X49.931 Y110.182 E130.74746
G0 F9000 X49.55 Y110.563
;TYPE:WALL-OUTER
G1 F1500 X170.45 Y110.562 E134.76861
G1 X170.45 Y110 E134.7873
G1 X170.45 Y109.438 E134.806
G1 X49.55 Y109.438 E138.82715
G1 X49.55 Y110.563 E138.86456
;MESH:NONMESH
G0 F300 X49.55 Y110.563 Z1.56
G0 F9000 X49.55 Y110.397
;TIME_ELAPSED:217.632196
;LAYER:7
;TYPE:WALL-OUTER
;MESH:PORTALRADIO - black- front-Sphere_005.stl
G1 F1500 X170.45 Y110.397 E142.88572
G1 X170.45 Y110 E142.89892
G1 X170.45 Y109.603 E142.91212
G1 X49.55 Y109.603 E146.93327
G1 X49.55 Y110.397 E146.95968
G0 F9000 X49.947 Y110
;TYPE:WALL-INNER
G1 F1522.8 X170.053 Y110 E150.8945
G1 F2700 E145.8945
;MESH:NONMESH
G0 F300 X170.053 Y110 Z1.72
G0 F9000 X49.85 Y110.176
G1 F2700 E150.8945
G0 F9000 X49.525 Y110.176
;TIME_ELAPSED:233.835163
;LAYER:8
;TYPE:WALL-OUTER
;MESH:PORTALRADIO - black- front-Sphere_005.stl
G1 F1709.4 X170.475 Y110.176 E153.71852
G1 X170.475 Y110 E153.72263
G1 X170.475 Y109.824 E153.72674
G1 X49.525 Y109.824 E156.55075
G1 X49.525 Y110.176 E156.55897
;TIME_ELAPSED:242.467846
G1 F2700 E151.55897
M140 S0
M107
G91 ;Relative positioning
G1 E-2 F2700 ;Retract a bit
G1 E-2 Z0.2 F2400 ;Retract and raise Z
G1 X5 Y5 F3000 ;Wipe out
G1 Z10 ;Raise Z more
G90 ;Absolute positioning

G1 X0 Y220 ;Present print
M106 S0 ;Turn-off fan
M104 S0 ;Turn-off hotend
M140 S0 ;Turn-off bed

M84 X Y E ;Disable all steppers but Z

M82 ;absolute extrusion mode
M104 S0
;End of Gcode
;SETTING_3 {"global_quality": "[general]\\nversion = 4\\nname = Dynamic Quality 
;SETTING_3 #2\\ndefinition = creality_ender3\\n\\n[metadata]\\ntype = quality_ch
;SETTING_3 anges\\nquality_type = adaptive\\nsetting_version = 20\\n\\n[values]\
;SETTING_3 \nsupport_enable = True\\n\\n", "extruder_quality": ["[general]\\nver
;SETTING_3 sion = 4\\nname = Dynamic Quality #2\\ndefinition = creality_ender3\\
;SETTING_3 n\\n[metadata]\\ntype = quality_changes\\nquality_type = adaptive\\ns
;SETTING_3 etting_version = 20\\nposition = 0\\n\\n[values]\\ninfill_sparse_dens
;SETTING_3 ity = 10\\n\\n"]}
